src/data/particle.svg

<svg id="svg2" xmlns:rdf="http://www.w3.org/1999/02/22-rdf-syntax-ns#" xmlns="http://www.w3.org/2000/svg" viewBox="0 0 48 48" height="100%" width="100%" version="1.1" xmlns:cc="http://creativecommons.org/ns#" xmlns:dc="http://purl.org/dc/elements/1.1/">
<path id="path3760" d="m6.976 7.601-1.71-1.056-1.191 1.62-0.241-1.996-2.009 0.079 1.411-1.433-1.315-1.521 2 0.209 0.37-1.976 1.083 1.694 1.775-0.943-0.649 1.903 1.845 0.8-1.893 0.679z" transform="matrix(5.364 .9370 -.9370 5.364 1.982 -5.713)" stroke="#fc0" stroke-width="0.8" fill="#ffe680"/>
</svg>

<!-- Created with Inkscape (http://www.inkscape.org/) -->
<svg id="svg2" xmlns:rdf="http://www.w3.org/1999/02/22-rdf-syntax-ns#" xmlns="http://www.w3.org/2000/svg" viewBox="0 0 48 48" height="100%" width="100%" version="1.1" xmlns:cc="http://creativecommons.org/ns#" xmlns:dc="http://purl.org/dc/elements/1.1/">
<metadata id="metadata7">
<rdf:RDF>
<cc:Work rdf:about="">
<dc:format>image/svg+xml</dc:format>
<dc:type rdf:resource="http://purl.org/dc/dcmitype/StillImage"/>
<dc:title/>
</cc:Work>
</rdf:RDF>
</metadata>
<path id="path3760" d="M6.976,7.601,5.266,6.545,4.075,8.165,3.834,6.169,1.825,6.248,3.236,4.815,1.921,3.294,3.921,3.503,4.291,1.527,5.374,3.221,7.149,2.278,6.5,4.181,8.345,4.981,6.452,5.66z" transform="matrix(5.364324,0.93698464,-0.93698464,5.364324,1.9817466,-5.71276)" stroke="#FC0" stroke-miterlimit="4" stroke-dasharray="none" stroke-width="0.80000001" fill="#ffe680"/>
</svg>
